X:1
T:Bonnie Annie
M:3/4
L:1/8
K:C
 C2| E3 D C2| G2 E2G-c| c2 d4-| d4c-B| A G- G4| z2 z2 G2| c4 GA| G2 E3 C|\
 E G3 E2| D C- C4| z4||

